dist/img/skills/languages/python.svg

<svg width="128" height="128" viewBox="0 0 128 128" fill="none" xmlns="http://www.w3.org/2000/svg">
<g opacity="0.32">
<path d="M64.0001 5.12C53.6101 5.12 46.5601 7.6 42.0801 11.2C37.6001 14.8 35.8401 19.43 35.8401 23.28V35.84H61.4401V38.4H23.2801C18.6001 38.4 13.8501 40.43 10.4801 44.72C7.11012 49.01 5.12012 55.41 5.12012 64C5.12012 72.59 7.11012 78.99 10.4801 83.28C13.8501 87.57 18.6001 89.6 23.2801 89.6H35.8401V104.72C35.8401 108.57 37.6001 113.2 42.0801 116.8C46.5601 120.4 53.6101 122.88 64.0001 122.88C74.3901 122.88 81.4401 120.4 85.9201 116.8C90.4001 113.2 92.1601 108.57 92.1601 104.72V92.16H66.5601V89.6H104.72C109.4 89.6 114.15 87.57 117.52 83.28C120.89 78.99 122.88 72.59 122.88 64C122.88 55.41 120.89 49.01 117.52 44.72C114.15 40.43 109.4 38.4 104.72 38.4H92.1601V23.28C92.1601 19.33 90.4101 14.69 85.9201 11.12C81.4301 7.55 74.3801 5.12 64.0001 5.12ZM64.0001 10.24C73.5901 10.24 79.4001 12.48 82.7201 15.12C86.0401 17.76 87.0401 20.83 87.0401 23.28V53.76C87.0401 58 83.6001 61.44 79.3601 61.44H48.6401C43.3701 61.44 38.8301 64.69 36.8801 69.28C36.5501 70.04 36.2501 70.85 36.0801 71.68C35.9101 72.51 35.8401 73.36 35.8401 74.24V84.48H23.2801C20.0301 84.48 17.0201 83.21 14.5601 80.08C12.1001 76.95 10.2401 71.79 10.2401 64C10.2401 56.21 12.1001 51.05 14.5601 47.92C17.0201 44.79 20.0301 43.52 23.2801 43.52H66.5601V30.72H40.9601V23.28C40.9601 20.99 41.9501 17.87 45.2801 15.2C48.6101 12.53 54.4201 10.24 64.0001 10.24ZM51.2001 17.92C48.3801 17.92 46.0801 20.22 46.0801 23.04C46.0801 25.86 48.3801 28.16 51.2001 28.16C54.0201 28.16 56.3201 25.86 56.3201 23.04C56.3201 20.22 54.0201 17.92 51.2001 17.92ZM92.1601 43.52H104.72C107.97 43.52 110.98 44.79 113.44 47.92C115.9 51.05 117.76 56.21 117.76 64C117.76 71.79 115.9 76.95 113.44 80.08C110.98 83.21 107.97 84.48 104.72 84.48H61.4401V97.28H87.0401V104.72C87.0401 107.01 86.0501 110.13 82.7201 112.8C79.3901 115.47 73.5801 117.76 64.0001 117.76C54.4201 117.76 48.6101 115.47 45.2801 112.8C41.9501 110.13 40.9601 107.01 40.9601 104.72V74.24C40.9601 73.71 41.0201 73.22 41.1201 72.72C41.8401 69.22 44.9301 66.56 48.6401 66.56H79.3601C86.3901 66.56 92.1601 60.79 92.1601 53.76V43.52ZM76.8001 99.84C73.9801 99.84 71.6801 102.14 71.6801 104.96C71.6801 107.78 73.9801 110.08 76.8001 110.08C79.6201 110.08 81.9201 107.78 81.9201 104.96C81.9201 102.14 79.6201 99.84 76.8001 99.84Z" fill="#F8F8FF"/>
</g>
</svg>

<svg width="128" height="128" fill="none" xmlns="http://www.w3.org/2000/svg"><path d="M64 5.12c-10.39 0-17.44 2.48-21.92 6.08s-6.24 8.23-6.24 12.08v12.56h25.6v2.56H23.28c-4.68 0-9.43 2.03-12.8 6.32C7.11 49.01 5.12 55.41 5.12 64c0 8.59 1.99 14.99 5.36 19.28 3.37 4.29 8.12 6.32 12.8 6.32h12.56v15.12c0 3.85 1.76 8.48 6.24 12.08 4.48 3.6 11.53 6.08 21.92 6.08 10.39 0 17.44-2.48 21.92-6.08s6.24-8.23 6.24-12.08V92.16h-25.6V89.6h38.16c4.68 0 9.43-2.03 12.8-6.32 3.37-4.29 5.36-10.69 5.36-19.28 0-8.59-1.99-14.99-5.36-19.28-3.37-4.29-8.12-6.32-12.8-6.32H92.16V23.28c0-3.95-1.75-8.59-6.24-12.16-4.49-3.57-11.54-6-21.92-6zm0 5.12c9.59 0 15.4 2.24 18.72 4.88 3.32 2.64 4.32 5.71 4.32 8.16v30.48c0 4.24-3.44 7.68-7.68 7.68H48.64c-5.27 0-9.81 3.25-11.76 7.84-.33.76-.63 1.57-.8 2.4-.17.83-.24 1.68-.24 2.56v10.24H23.28c-3.25 0-6.26-1.27-8.72-4.4-2.46-3.13-4.32-8.29-4.32-16.08 0-7.79 1.86-12.95 4.32-16.08 2.46-3.13 5.47-4.4 8.72-4.4h43.28v-12.8h-25.6v-7.44c0-2.29.99-5.41 4.32-8.08s9.14-4.96 18.72-4.96zm-12.8 7.68a5.13 5.13 0 00-5.12 5.12c0 2.82 2.3 5.12 5.12 5.12 2.82 0 5.12-2.3 5.12-5.12 0-2.82-2.3-5.12-5.12-5.12zm40.96 25.6h12.56c3.25 0 6.26 1.27 8.72 4.4 2.46 3.13 4.32 8.29 4.32 16.08 0 7.79-1.86 12.95-4.32 16.08-2.46 3.13-5.47 4.4-8.72 4.4H61.44v12.8h25.6v7.44c0 2.29-.99 5.41-4.32 8.08s-9.14 4.96-18.72 4.96c-9.58 0-15.39-2.29-18.72-4.96-3.33-2.67-4.32-5.79-4.32-8.08V74.24c0-.53.06-1.02.16-1.52.72-3.5 3.81-6.16 7.52-6.16h30.72c7.03 0 12.8-5.77 12.8-12.8V43.52zM76.8 99.84a5.13 5.13 0 00-5.12 5.12c0 2.82 2.3 5.12 5.12 5.12 2.82 0 5.12-2.3 5.12-5.12 0-2.82-2.3-5.12-5.12-5.12z" fill="#F8F8FF" opacity=".32"/></svg>
